static/img/kroki/618b87d5f350268363e618cf083f6bfd.svg

<?xml version="1.0" encoding="us-ascii" standalone="no"?><svg xmlns="http://www.w3.org/2000/svg" xmlns:xlink="http://www.w3.org/1999/xlink" contentStyleType="text/css" height="152px" preserveAspectRatio="none" style="width:247px;height:152px;" version="1.1" viewBox="0 0 247 152" width="247px" zoomAndPan="magnify"><defs/><g><!--class azure_image--><g id="elem_azure_image"><rect codeLine="22" fill="#3D176E" height="39.7891" id="azure_image" rx="2.5" ry="2.5" style="stroke:#000D19;stroke-width:0.5;" width="149" x="49" y="106.79"/><ellipse cx="64" cy="126.6845" fill="#ADD1B2" rx="11" ry="11" style="stroke:#181818;stroke-width:1.0;"/><path d="M66.9688,132.3252 Q66.3906,132.622 65.75,132.7627 Q65.1094,132.9189 64.4063,132.9189 Q61.9063,132.9189 60.5781,131.2783 Q59.2656,129.622 59.2656,126.497 Q59.2656,123.372 60.5781,121.7158 Q61.9063,120.0595 64.4063,120.0595 Q65.1094,120.0595 65.75,120.2158 Q66.4063,120.372 66.9688,120.6689 L66.9688,123.3877 Q66.3438,122.8095 65.75,122.5439 Q65.1563,122.2627 64.5313,122.2627 Q63.1875,122.2627 62.5,123.3408 Q61.8125,124.4033 61.8125,126.497 Q61.8125,128.5908 62.5,129.6689 Q63.1875,130.7314 64.5313,130.7314 Q65.1563,130.7314 65.75,130.4658 Q66.3438,130.1845 66.9688,129.6064 L66.9688,132.3252 Z " fill="#000000"/><text fill="#D9B8FF" font-family="Helvetica" font-size="17" lengthAdjust="spacing" textLength="107" x="83" y="132.5698">azure_image</text></g><!--class azure_virtual_machine--><g id="elem_azure_virtual_machine"><rect codeLine="24" fill="#3D176E" height="39.7891" id="azure_virtual_machine" rx="2.5" ry="2.5" style="stroke:#000D19;stroke-width:0.5;" width="233" x="7" y="7"/><ellipse cx="22" cy="26.8945" fill="#ADD1B2" rx="11" ry="11" style="stroke:#181818;stroke-width:1.0;"/><path d="M24.9688,32.5352 Q24.3906,32.832 23.75,32.9727 Q23.1094,33.1289 22.4063,33.1289 Q19.9063,33.1289 18.5781,31.4883 Q17.2656,29.832 17.2656,26.707 Q17.2656,23.582 18.5781,21.9258 Q19.9063,20.2695 22.4063,20.2695 Q23.1094,20.2695 23.75,20.4258 Q24.4063,20.582 24.9688,20.8789 L24.9688,23.5977 Q24.3438,23.0195 23.75,22.7539 Q23.1563,22.4727 22.5313,22.4727 Q21.1875,22.4727 20.5,23.5508 Q19.8125,24.6133 19.8125,26.707 Q19.8125,28.8008 20.5,29.8789 Q21.1875,30.9414 22.5313,30.9414 Q23.1563,30.9414 23.75,30.6758 Q24.3438,30.3945 24.9688,29.8164 L24.9688,32.5352 Z " fill="#000000"/><text fill="#D9B8FF" font-family="Helvetica" font-size="17" lengthAdjust="spacing" textLength="191" x="41" y="32.7798">azure_virtual_machine</text></g><!--link azure_virtual_machine to azure_image--><g id="link_azure_virtual_machine_azure_image"><path codeLine="26" d="M123.5,47.22 C123.5,64.36 123.5,83.27 123.5,100.41 " fill="none" id="azure_virtual_machine-to-azure_image" style="stroke:#1A83AF;stroke-width:2.0;"/><polygon fill="#1A83AF" points="123.5,106.41,127.5,97.41,123.5,101.41,119.5,97.41,123.5,106.41" style="stroke:#1A83AF;stroke-width:2.0;"/></g><!--SRC=[XP1FIyD04CNl_HGBFHSIWwQv235Gz5B4UXCfa-niiYIx6sOtBQtutRL6PPlqp_Mz7- -zcKfoPAXQjsCALOva9xQMkWK2nL8YiyrCOuXDXG0HnKDpORIx2Yn18Nl4PeDE5Z0aNYjPr1gjPJUUzG15NPBfDE_Z7O6stnPgvr5P0zQcpf7CEuVU69xaSo66v31q6l4mliCHPeWZ_I914F0m6I9NgoxU_K-iv1vPw3zjQHoEPeugVgYBAm-4Dt9qw9z_TkCpS2vroMuzxQNVH1hfI5zLmCtsG0jeh5zZ7H8Qjsin6rs5oPoB-2JyT0uk3fzZiEy8rr91YUnZydcaRYIv3fgrWgAIklTFExEtQPZEetJnFhlt8xy0]--></g></svg>

<svg xmlns="http://www.w3.org/2000/svg" width="247" height="152" viewBox="0 0 247 152"><rect width="149" height="39.789" x="49" y="106.79" fill="#3D176E" rx="2.5" ry="2.5" style="stroke:#000d19;stroke-width:.5"/><circle cx="64" cy="126.684" r="11" fill="#ADD1B2" style="stroke:#181818;stroke-width:1"/><path d="M66.969 132.325q-.578.297-1.219.438-.64.156-1.344.156-2.5 0-3.828-1.64-1.312-1.657-1.312-4.782t1.312-4.781q1.328-1.656 3.828-1.656.703 0 1.344.156.656.156 1.219.453v2.719q-.625-.579-1.219-.844-.594-.281-1.219-.281-1.344 0-2.031 1.078-.687 1.062-.687 3.156t.687 3.172q.688 1.062 2.031 1.062.625 0 1.219-.265.594-.281 1.219-.86z"/><text x="83" y="132.57" fill="#D9B8FF" font-family="Helvetica" font-size="17" textLength="107">azure_image</text><rect width="233" height="39.789" x="7" y="7" fill="#3D176E" rx="2.5" ry="2.5" style="stroke:#000d19;stroke-width:.5"/><circle cx="22" cy="26.895" r="11" fill="#ADD1B2" style="stroke:#181818;stroke-width:1"/><path d="M24.969 32.535q-.578.297-1.219.438-.64.156-1.344.156-2.5 0-3.828-1.64-1.312-1.657-1.312-4.782t1.312-4.781q1.328-1.656 3.828-1.656.703 0 1.344.156.656.156 1.219.453v2.719q-.625-.578-1.219-.844-.594-.281-1.219-.281-1.343 0-2.031 1.078-.687 1.062-.687 3.156t.687 3.172q.688 1.062 2.031 1.062.625 0 1.219-.265.594-.281 1.219-.86z"/><text x="41" y="32.78" fill="#D9B8FF" font-family="Helvetica" font-size="17" textLength="191">azure_virtual_machine</text><path fill="none" d="M123.5 47.22v53.19" style="stroke:#1a83af;stroke-width:2"/><path fill="#1A83AF" d="m123.5 106.41 4-9-4 4-4-4z" style="stroke:#1a83af;stroke-width:2"/></svg>
